X:289
R:polska
C:Olof Laurin
S:Av komministern O. Laurin i Dalhem.
O:Gotland, Dalhem
M:3/4
L:1/16
K:A
c2cA B2BG A4|a2af d2df e4|edBd dcAc cBGB|BAdc BAGF E4|
c2cA cdBG G2A2|ABcd efga b2a2|afdf fece edBd|cdBG G4 A4::
agab c'2c'a d'2d'b|c'2c'a b2bg agfe|f2fe d2df a2af|
e2ec A2Ac e2ec|d2dB G2GB d2f2|efed cdcB A4|cBce agfe dcBA|
cdBG B4 A4::[ec']4 [db]2[db]2 [ca]4|[CE]4 [DF]2[DF]2 [CE]4|
(B,Gde) (edGB,) (B,Gde)|cAce a2ae dcBA|(B,Gde) (edGB,) (B,Gde)|
CEAc abc'd' e'4|e'c'ae aecA fBdf|eEFG B4 A4:|

